X:1
T:Miss Reay of Killingworth's favorite
T:Miss Reay of Killingworth's favorite
T:Abraham Mackintosh
C:Abraham Mackintosh
%%score 1 2
L:1/8
M:6/8
K:G
V:1 treble 
V:2 bass 
V:1
|: [Bg]3 [Af]3 | g2 b{^c} d2 e/f/ | gfe dcB | ABG FED | [Bg]2 [Bg] [Af]2 [Af] | g2 b{^c} def | %6
 gfe agf | ed^c d2 :: d | Td3 b2 d |{d} cBc a2 c | Bdg dcB | ABG FED | d2 b dcB | c2 a cBA | %15
 Bdg agf | g3 G2 :| g | gfg efg | abg fed | efg dcB | ABG FED | gfg efg | abg fed | efg agf | %25
 g3 G2 g | gfg efg | abg fed | efg dcB | ABG FED | EFG FGA | GAB ABc | d2 b agf | %33
 !fermata!gdc BcA |] %34
V:2
|: G,B,G, D2 C | B,A,G, F,E,D, | G,3 G,,3 | C,2 ^C, D,2 z | G,,B,,^C, D,D=C | B,A,G, F,E,D, | %6
 E,2 A, F,2 B, | G,2 A, D,2 :: z | B,,B,A, ^G,F,E, | A,2 =G, F,E,D, | G,3 G,,3 | C,2 ^C, D,2 z | %13
 G,3 ^G,3 | A,3 F,3 | G,2 B,, C,2 D, | G,,B,,D, G,2 :| z | B,,3 C,3 | A,,3 D,3 | C,3 G,,3 | %21
 C,2 ^C, D,3 | B,,3 C,2 B,, | A,,3 D,2 B,, | C,2 B,, A,,2 D, | G,,B,,D, G,2 z | B,,2 z C,2 z | %27
 A,,2 z D,2 z | C,2 z G,,2 z | C,2 ^C, D,3 | C,2 z A,,2 z | B,,2 z F,,2 z | G,,3 C,2 D, | %33
 !fermata!G,,2 z z2 z |] %34

